!!!SOCIAL_FUNCTION:	songs with the corn dance
!!!PDT:	1956
!!!OTL: No_11_Corn_Dance_Song_(g).krn
!!!LANG: Non-Tone
!!!LING_GROUP: Muskogean
!!!REG: Florida
**kern
*staff1
=1-
*clefF4
*k[f#c#]
*M2/4
4r
4D\
=2!|:
4A\
4A\
=3
4F#\
4G\
=4||
*M3/4
(4F#\
4D\)
(8.F#\L
16D\Jk)
=5
4D\
4r
4A\
=6||
*M2/4
(8.A\L
16F#\Jk)
8F#\L
8G\J
=7
(8.F#\L
32D\Jkk)
32r
4G\
=8||
*M3/4
4F#\
4D\
8.F#\L
16D\Jk
=9||
*M2/4
4D\
4r
=10
2D\
=11
4D\
8C#/
8r
=12
2D\
=13||
*M3/4
4D\
4r
4D\
=14:|!
*M2/4
4D\
8F#\L
8D\J
=15
4F#\
(8.F#\L
16D\Jk)
=16
4D\
8.F#\L
16D\Jk
=17||
*M3/4
4D\
4r
4A\
=18||
*M2/4
4F#\
4G\
=19
8F#\L
16D\Jk
16r
4G\
=20||
*M3/4
4F#\
4D\
(8.F#\L
16D\Jk)
=21||
*M2/4
2D\
=22
2D\
=23
4D\
8C#/
8r
=24
2D\
=25||
*M3/4
4D\
4r
4D\
=26||
*M2/4
4A\
4A\
=27
4F#\
4F#\
=28||
*M3/4
(8.F#\L
16D\Jk)
4D\
(8.F#\L
16D\Jk)
=29
4D\
4r
4A\
=30||
*M2/4
4A\
8F#\L
8G\J
=31
(8F#\L
16D\Jk)
16r
4G\
=32||
*M3/4
(4F#\
4D\)
(8.F#\L
16D\Jk)
=33||
*M2/4
4D\
4r
=34
2D\
=35
4D\
8C#/
8r
=36
2D\
=37||
*M3/4
2D\
4A\
=38||
*M2/4
4F#\
8F#\L
8G\J
=39
8F#\L
16D\Jk
16r
4G\
=40||
*M3/4
(8.F#\L
16D\Jk)
4D\
(8.F#\L
16D\Jk)
=41||
*M2/4
4D\
4r
=42
2D\
=43
4D\
8C#/
8r
=44
2D\
=45||
*M3/4
2D\
8D\L
8D\J
=46||
*M2/4
4A\
4A\
=47
4F#\
8G\L
8G\J
=48||
*M3/4
(8.F#\L
16D\Jk)
4D\
(8.F#\L
16D\Jk)
=49
4D\
4r
16A\LK
8.A\J
=50||
*M2/4
4A\
8F#\L
8G\J
=51
8F#\L
16D\Jk
16r
16G\LK
8.G\J
=52||
*M3/4
4F#\
4D\
8.F#\L
16D\Jk
=53||
*M2/4
2D\
=54
2C#/
=55
4C#/
8C#/
8r
=56||
*M3/4
2D\
8D\L
8D\J
=57||
*M2/4
4A\
8A\L
8A\J
=58
!!pagebreak:default
4F#\
8G\L
8G\J
=59||
*M3/4
4F#\
4D\
(8.F#\L
16D\Jk)
=60
4D\
4r
8A\L
8A\J
=61||
*M2/4
4A\
8F#\L
8G\J
=62
8F#\L
16D\Jk
16r
8G\L
8G\J
=63||
*M3/4
4F#\
4D\
8.F#\L
16D\Jk
=64||
*M2/4
2D\
=65
2C#/
=66
4C#/
8C#/
8r
=67||
*M3/4
4D\
4r
8G\L
8G\J
=68
4F#\
4D\
8.F#\L
16D\Jk
=69||
*M2/4
2D\
=70
2C#/
=71
4C#/
8C#/
8r
=72
2D\
=73||
*M3/4
4D\
8.F#\L
16D\Jk
16G\LK
8.G\J
=74
4F#\
4D\
8.F#\L
16D\Jk
=75
4D\
4r
16D\LK
8.D\J
=76||
*M2/4
4A\
4A\
=77
4F#\
16G\LK
8.G\J
=78||
*M3/4
4F#\
4D\
(8.F#\L
16D\Jk)
=79||
*M2/4
8D\
8r
16A\LK
8.A\J
=80
4A\
8.F#\L
16G\Jk
=81
8.F#\L
16D\Jk
16G\LK
8.G\J
=82||
*M3/4
4F#\
4D\
8.F#\L
16D\Jk
=83
2D\
4r
==
*-
